X: 2067
T: Rokoko Kolo
O: Croatia
Z: 1987 by John Chambers <jc@eddie.mit.edu> http://eddie.mit.edu/~jc/music/abc/
N: From a transcription by Cal Howard.
M: C|
L: 1/8
K: C
P: A:
|: "C"c2c2 c2c2 | dcdc "E"B4 | "Am"A2A2 A2A2 | "E"BcBA ^G3E \
|  "Dm"F2F2 F2F2 | ^GABA "E"G4 | "Dm"BA^GA GFED | "E"E2E2 E2z2 :|
P: B:
K: D
|: "D"F2GA BAGF | "A7"G6 AG | "D"F2GA BAGF | "A7"G6 AG \
|  "D"F2GA BAGF | "A7"BAGF G2^GA | "Dm"BA^GA "E"GFED | "A"E2E2 E2z2 :|
